X: 16
T:Battle of Augrim
M:C|
L:1/16
R:March
K:G
E2A2 ABcd | e2d2 c3A | B2G2 GFGA | B2AG E2D2 |
E2A2 A2Bd| e2d2 e2ag| e2d2 BedB |1 A4 A3G :|2 A4 A3e |
|: a3g e2fg | abag e2fg | abaf g3e | dedB G3e |
a2e2 e2fg | abag e2d2 | B2e2 d2B2 |1 A4 A3e :|2 A4 A3G |
